NotoEmoji/1f1ec-1f1e7.svg

<svg xmlns="http://www.w3.org/2000/svg" viewBox="0 0 36 36"><path fill="#00247D" d="M0 9.059V13h5.628zM4.664 31H13v-5.837zM23 25.164V31h8.335zM0 23v3.941L5.63 23zM31.337 5H23v5.837zM36 26.942V23h-5.631zM36 13V9.059L30.371 13zM13 5H4.664L13 10.837z"/><path fill="#CF1B2B" d="M25.14 23l9.712 6.801c.471-.479.808-1.082.99-1.749L28.627 23H25.14zM13 23h-2.141l-9.711 6.8c.521.53 1.189.909 1.938 1.085L13 23.943V23zm10-10h2.141l9.711-6.8c-.521-.53-1.188-.909-1.937-1.085L23 12.057V13zm-12.141 0L1.148 6.2C.677 6.68.34 7.282.157 7.949L7.372 13h3.487z"/><path fill="#FFF" d="M36 21H21v10h2v-5.836L31.335 31H32c1.117 0 2.126-.461 2.852-1.199L25.14 23h3.487l7.215 5.052c.093-.337.158-.686.158-1.052v-.058L30.369 23H36v-2zM0 21v2h5.63L0 26.941V27c0 1.091.439 2.078 1.148 2.8l9.711-6.8H13v.943l-9.914 6.941c.294.07.598.116.914.116h.664L13 25.163V31h2V21H0zM36 9c0-1.091-.439-2.078-1.148-2.8L25.141 13H23v-.943l9.915-6.942C32.62 5.046 32.316 5 32 5h-.663L23 10.837V5h-2v10h15v-2h-5.629L36 9.059V9zM13 5v5.837L4.664 5H4c-1.118 0-2.126.461-2.852 1.2l9.711 6.8H7.372L.157 7.949C.065 8.286 0 8.634 0 9v.059L5.628 13H0v2h15V5h-2z"/><path fill="#CF1B2B" d="M21 15V5h-6v10H0v6h15v10h6V21h15v-6z"/></svg>

<svg viewBox="0 0 36 36" xmlns="http://www.w3.org/2000/svg"><path d="m0 9.06v3.94h5.63zm4.66 21.94h8.34v-5.84zm18.34-5.84v5.84h8.34zm-23-2.16v3.94l5.63-3.94zm31.34-18h-8.34v5.84zm4.66 21.94v-3.94h-5.63zm0-13.94v-3.94l-5.63 3.94zm-23-8h-8.34l8.34 5.84z" fill="#00247d"/><path d="m25.14 23 9.71 6.8c.47-.48.81-1.08.99-1.75l-7.21-5.05zm-12.14 0h-2.14l-9.71 6.8c.52.53 1.19.91 1.94 1.09l9.91-6.95zm10-10h2.14l9.71-6.8c-.52-.53-1.19-.91-1.94-1.09l-9.91 6.95zm-12.14 0-9.71-6.8c-.47.48-.81 1.08-.99 1.75l7.21 5.05z" fill="#cf1b2b"/><path d="m36 21h-15v10h2v-5.84l8.34 5.84h.66c1.12 0 2.13-.46 2.85-1.2l-9.71-6.8h3.49l7.22 5.05c.09-.34.16-.69.16-1.05v-.06l-5.64-3.94h5.63zm-36 0v2h5.63l-5.63 3.94v.06c0 1.09.44 2.08 1.15 2.8l9.71-6.8h2.14v.94l-9.91 6.94c.29.07.6.12.91.12h.66l8.34-5.84v5.84h2v-10zm36-12c0-1.09-.44-2.08-1.15-2.8l-9.71 6.8h-2.14v-.94l9.91-6.94c-.29-.07-.59-.12-.91-.12h-.66l-8.34 5.84v-5.84h-2v10h15v-2h-5.63l5.63-3.94zm-23-4v5.84l-8.34-5.84h-.66c-1.12 0-2.13.46-2.85 1.2l9.71 6.8h-3.49l-7.21-5.05c-.09.34-.16.68-.16 1.05v.06l5.63 3.94h-5.63v2h15v-10z" fill="#fff"/><path d="m21 15v-10h-6v10h-15v6h15v10h6v-10h15v-6z" fill="#cf1b2b"/></svg>
